X:1
T:Blackwell, CMD
T:Blackwell, CMD
T:Hart Pease Danks, 1902
T:Public Domain Courtesy of the Cyber Hymnal™
C:Hart Pease Danks, 1902
Z:Public Domain
Z:Courtesy of the Cyber Hymnal™
%%score ( 1 2 ) ( 3 4 )
L:1/8
Q:1/4=95
M:6/8
K:Bb
V:1 treble 
V:2 treble 
V:3 bass 
V:4 bass 
V:1
 [DF] | ([DF][B,D])[CE] (Fc)[DB] | [EB]2 [EA] [EA]2 [EG] | [EG]2 [EF] [A,C]2 [A,^C] | %4
 [B,D]3- [B,D]2 D | [DB]2 [DA] [DG]2 [DF] | [DF]2 [CE] [CE]2 [EG] | [=Ec]2 [EB] [EA]2 [EG] | %8
 F3- F2 F | (AG)[EF] (AG)[EF] | (FB)[^CG] [DF]2 [DF] | [CF]2 [FA] [=Ec]2 [Ec] | [Ec]3- [Ec]2 F | %13
 [Fd]2 [Fc] [FB]2 [FA] | [FA]2 [EG] [EG]2 [EG] | [DF]2 [DB] [EB]2 [EA] | [DB]3- [DB]2 |] %17
V:2
 x | x3 D2 x | x6 | x6 | x5 D | x6 | x6 | x6 | F3- F2 F | E2 E2 x2 | D2 x4 | x6 | x5 F | x6 | x6 | %15
 x6 | x5 |] %17
V:3
 [B,,F,] | [B,,F,]2 [B,,F,] [B,,F,]2 [B,,F,] | [C,F,]2 [C,F,] [C,F,]2 [C,G,] | %3
 [F,A,]2 [F,A,] [F,,F,]2 [F,,F,] | [B,,F,]3- [B,,F,]2 D, | [G,,G,]2 [A,,^F,] [B,,G,]2 [=B,,G,] | %6
 [C,G,]2 [C,G,] [C,G,]2 [C,G,] | [C,G,]2 [C,G,] [C,C]2 [C,B,] | [F,A,]3- [F,A,]2 [F,A,] | %9
 (CB,)[F,A,] (CB,)[F,A,] | (B,F,)[_B,,=E,] [B,,F,]2 [=B,,_A,] | [C,A,]2 [C,C] [C,B,]2 [C,B,] | %12
 [F,A,]3- [F,A,]2 [F,A,] | [B,,B,]2 [C,A,] [D,B,]2 [D,B,] | [E,B,]2 [E,B,] [E,B,]2 [E,B,] | %15
 [F,B,]2 [F,B,] [F,C]2 [F,C] | [B,,B,]3- [B,,B,]2 |] %17
V:4
 x | x6 | x6 | x6 | x5 D, | x6 | x6 | x6 | x6 | F,2 F,2 x2 | =B,,2 x4 | x6 | x6 | x6 | x6 | x6 | %16
 x5 |] %17

